X: 50
T:Kiss her Sweetly. JBa.49
T:Kiss Me Sweetly,aka. JBa.49
M:C|
L:1/8
Q:180
S:Joseph Barnes MS,Carlisle,1762.
R:reel
O:England
A:Carlisle
Z:vmp.C. Graebe.
K:C major
a/g/f/e/ cg egce | a/g/f/e/ cg edde  |\
"q's" a/g/f/e/ cg eg ce | cA GE C/C/C C2 :|!
|:EG cG AG cG | EG cA dDDd |\
 EG cG EG ga | gede c/c/"sq's"c "End"c2|]
